client/src/icons/group.svg

<?xml version="1.0" encoding="iso-8859-1"?>
<!-- Generator: Adobe Illustrator 19.0.0, SVG Export Plug-In . SVG Version: 6.00 Build 0)  -->
<svg version="1.1" id="Layer_1" xmlns="http://www.w3.org/2000/svg" xmlns:xlink="http://www.w3.org/1999/xlink" x="0px" y="0px"
	 viewBox="0 0 512.004 512.004" style="enable-background:new 0 0 512.004 512.004;" xml:space="preserve">
<g>
	<g>
		<path d="M469.338,369.777v-28.578c0-61.175-49.766-110.933-110.933-110.933h-59.733v-76.8h34.884
			c9.668,0,18.398-5.342,22.793-13.943c4.403-8.602,3.627-18.808-2.031-26.641L282.79,13.852
			c-6.281-8.704-16.043-13.696-26.778-13.696h-0.009c-10.735,0-20.506,4.992-26.795,13.696L157.7,112.881
			c-5.666,7.834-6.443,18.039-2.048,26.641c4.403,8.602,13.133,13.943,22.801,13.943h43.418v76.8h-68.267
			c-61.167,0-110.933,49.758-110.933,110.933v28.604c-25.574,12.518-41.745,36.941-42.633,64.99
			c-1.195,37.803,25.668,69.769,63.872,76.015c22.579,3.703,45.397-2.577,62.609-17.203s27.085-35.968,27.085-58.539
			c0-28.348-15.829-52.386-42.667-65.289v-28.578c0-23.526,19.14-42.667,42.667-42.667h68.267v71.27
			c-25.574,12.518-41.745,36.941-42.633,64.99c-1.195,37.803,25.668,69.769,63.872,76.015c22.579,3.703,45.397-2.577,62.609-17.203
			s27.085-35.968,27.085-58.539c0-28.348-15.829-52.386-42.667-65.289v-71.245h68.267c23.526,0,42.667,19.14,42.667,42.667v28.604
			c-25.574,12.518-41.745,36.941-42.633,64.99c-1.195,37.803,25.668,69.769,63.872,76.015c4.241,0.7,8.499,1.041,12.723,1.041
			c18.244,0,35.908-6.366,49.886-18.244c17.212-14.626,27.085-35.968,27.085-58.539
			C512.004,406.718,496.175,382.679,469.338,369.777z"/>
	</g>
</g>
<g>
</g>
<g>
</g>
<g>
</g>
<g>
</g>
<g>
</g>
<g>
</g>
<g>
</g>
<g>
</g>
<g>
</g>
<g>
</g>
<g>
</g>
<g>
</g>
<g>
</g>
<g>
</g>
<g>
</g>
</svg>

<svg width="16" height="16" viewBox="0 0 16 16" xmlns="http://www.w3.org/2000/svg">
    <defs/>
    <path id="path1406" fill="#000000" stroke="none" transform="matrix(0.02927969 0 0 0.02927969 0.45571786 0.52916695)" d="M 469.338 369.777 L 469.338 341.199 C 469.338 280.024 419.572 230.266 358.405 230.266 L 298.672 230.266 L 298.672 153.466 L 333.556 153.466 C 343.224 153.466 351.954 148.124 356.349 139.523 C 360.752 130.921 359.976 120.715 354.318 112.882 L 282.79 13.852 C 276.509 5.148 266.747 0.156 256.012 0.156 L 256.003 0.156 C 245.268 0.156 235.497 5.148 229.208 13.852 L 157.7 112.881 C 152.034 120.715 151.257 130.92 155.652 139.522 C 160.055 148.124 168.785 153.465 178.453 153.465 L 221.871 153.465 L 221.871 230.265 L 153.604 230.265 C 92.437 230.265 42.671 280.023 42.671 341.198 L 42.671 369.802 C 17.097 382.32 0.926 406.743 0.038 434.792 C -1.157 472.595 25.706 504.561 63.91 510.807 C 86.489 514.51 109.307 508.23 126.519 493.604 C 143.731 478.978 153.604 457.636 153.604 435.065 C 153.604 406.717 137.775 382.679 110.937 369.776 L 110.937 341.198 C 110.937 317.672 130.077 298.531 153.604 298.531 L 221.871 298.531 L 221.871 369.801 C 196.297 382.319 180.126 406.742 179.238 434.791 C 178.043 472.594 204.906 504.56 243.11 510.806 C 265.689 514.509 288.507 508.229 305.719 493.603 C 322.931 478.977 332.804 457.635 332.804 435.064 C 332.804 406.716 316.975 382.678 290.137 369.775 L 290.137 298.53 L 358.404 298.53 C 381.93 298.53 401.071 317.67 401.071 341.197 L 401.071 369.801 C 375.497 382.319 359.326 406.742 358.438 434.791 C 357.243 472.594 384.106 504.56 422.31 510.806 C 426.551 511.506 430.809 511.847 435.033 511.847 C 453.277 511.847 470.941 505.481 484.919 493.603 C 502.131 478.977 512.004 457.635 512.004 435.064 C 512.004 406.718 496.175 382.679 469.338 369.777 Z"/>
</svg>
